icons/svgs/money-bills-solid.svg

<svg width="25" height="24" viewBox="0 0 25 24" fill="none" xmlns="http://www.w3.org/2000/svg">
<path d="M3.75 5.75C3.75 4.38281 4.84375 3.25 6.25 3.25H22.5C23.8672 3.25 25 4.38281 25 5.75V14.5C25 15.9062 23.8672 17 22.5 17H6.25C4.84375 17 3.75 15.9062 3.75 14.5V5.75ZM6.25 12V14.5H8.75C8.75 13.1328 7.61719 12 6.25 12ZM8.75 5.75H6.25V8.25C7.61719 8.25 8.75 7.15625 8.75 5.75ZM22.5 12C21.0938 12 20 13.1328 20 14.5H22.5V12ZM20 5.75C20 7.15625 21.0938 8.25 22.5 8.25V5.75H20ZM11.25 10.125C11.25 11.2578 11.8359 12.2734 12.8125 12.8594C13.75 13.4062 14.9609 13.4062 15.9375 12.8594C16.875 12.2734 17.5 11.2578 17.5 10.125C17.5 9.03125 16.875 8.01562 15.9375 7.42969C14.9609 6.88281 13.75 6.88281 12.8125 7.42969C11.8359 8.01562 11.25 9.03125 11.25 10.125ZM1.875 6.6875V16.0625C1.875 17.625 3.125 18.875 4.6875 18.875H20.3125C20.8203 18.875 21.25 19.3047 21.25 19.8125C21.25 20.3594 20.8203 20.75 20.3125 20.75H4.6875C2.07031 20.75 0 18.6797 0 16.0625V6.6875C0 6.17969 0.390625 5.75 0.9375 5.75C1.44531 5.75 1.875 6.17969 1.875 6.6875Z" fill="black"/>
</svg>

<svg xmlns="http://www.w3.org/2000/svg" width="24" height="24" fill="currentColor" class="icon-money-bills-solid" viewBox="0 0 24 24">
  <mask id="a" width="25" height="18" x="0" y="3" maskUnits="userSpaceOnUse" style="mask-type:alpha">
    <path d="M3.75 5.75c0-1.367 1.094-2.5 2.5-2.5H22.5c1.367 0 2.5 1.133 2.5 2.5v8.75c0 1.406-1.133 2.5-2.5 2.5H6.25a2.47 2.47 0 0 1-2.5-2.5zM6.25 12v2.5h2.5c0-1.367-1.133-2.5-2.5-2.5m2.5-6.25h-2.5v2.5c1.367 0 2.5-1.094 2.5-2.5M22.5 12a2.49 2.49 0 0 0-2.5 2.5h2.5zM20 5.75c0 1.406 1.094 2.5 2.5 2.5v-2.5zm-8.75 4.375c0 1.133.586 2.148 1.563 2.734.937.547 2.148.547 3.124 0 .938-.586 1.563-1.601 1.563-2.734 0-1.094-.625-2.11-1.562-2.695-.977-.547-2.188-.547-3.126 0-.976.586-1.562 1.601-1.562 2.695M1.875 6.688v9.375a2.8 2.8 0 0 0 2.813 2.812h15.625a.95.95 0 0 1 .937.938c0 .546-.43.937-.937.937H4.688A4.65 4.65 0 0 1 0 16.063V6.688c0-.508.39-.938.938-.938a.95.95 0 0 1 .937.938"/>
  </mask>
  <g mask="url(#a)">
    <path d="M0 0h24v24H0z"/>
  </g>
</svg>
